symbols/web/comment_bank/materialsymbolsoutlined/comment_bank_wght100gradN25fill1_24px.svg

<svg xmlns="http://www.w3.org/2000/svg" height="24" width="24"><path d="M3.425 19.3V4.85q0-.6.413-1.025Q4.25 3.4 4.85 3.4h14.3q.6 0 1.013.425.412.425.412 1.025v10.3q0 .6-.412 1.013-.413.412-1.013.412h-13ZM13.7 9.775l1.8-1.05 1.825 1.05V4.05H13.7Z"/></svg>

<svg xmlns="http://www.w3.org/2000/svg" height="24" width="24"><path d="M3.425 19.3V4.85Q3.425 4.25 3.838 3.825Q4.25 3.4 4.85 3.4H19.15Q19.75 3.4 20.163 3.825Q20.575 4.25 20.575 4.85V15.15Q20.575 15.75 20.163 16.163Q19.75 16.575 19.15 16.575H6.15ZM13.7 9.775 15.5 8.725 17.325 9.775V4.05H13.7Z"/></svg>
